packages/blockchain-info-components/src/Images/img/visa-logo.svg

<svg fill="none" height="24" viewBox="0 0 32 24" width="32" xmlns="http://www.w3.org/2000/svg"><rect fill="#fff" height="24" rx="4" width="32"/><path d="m4 4.5h24v2.36066h-24z" fill="#1a1f71"/><path d="m4 17.0898h24v2.36065h-24z" fill="#f7b600"/><g fill="#1a1f71"><path d="m14.5442 14.8519h-1.5299l.9569-5.91653h1.5298z"/><path d="m20.09 9.08002c-.3017-.11972-.7803-.2519-1.3721-.2519-1.5108 0-2.5747.80562-2.5812 1.95738-.0126.8498.7617 1.3218 1.3408 1.6052.5918.2895.793.4785.793.7366-.006.3963-.4782.579-.9187.579-.6108 0-.938-.0942-1.4354-.3147l-.2014-.0945-.2141 1.3281c.3588.1635 1.0199.3085 1.7062.3149 1.6052 0 2.6503-.7931 2.6626-2.0206.0061-.6735-.4027-1.1896-1.2841-1.6113-.5351-.2707-.8628-.4532-.8628-.7302.0063-.2518.2772-.5097.8812-.5097.4973-.0127.8628.1069 1.1396.2265l.1384.0628z"/><path d="m22.1233 12.7559c.1259-.3399.6107-1.6554.6107-1.6554-.0063.0126.1258-.3462.2013-.5664l.1069.5098s.2897 1.4162.3526 1.712c-.2391 0-.9694 0-1.2715 0zm1.8883-3.82053h-1.1833c-.3649 0-.6421.10691-.7996.4909l-2.2724 5.42553h1.6053s.2642-.7302.321-.8875h1.9642c.0439.2077.1826.8875.1826.8875h1.4164z"/><path d="m6.38578 8.93537h2.46136c.33362.01246.60433.11946.69243.49734l.53483 2.71819.0003.0007.1637.8183 1.4982-4.03453h1.6177l-2.4047 5.91033h-1.61773l-1.36354-5.141c-.47047-.27506-1.00741-.49627-1.60773-.64979z"/></g></svg>

<svg width="32" height="24" viewBox="0 0 32 24" fill="none" xmlns="http://www.w3.org/2000/svg">
<rect width="32" height="24" rx="4" fill="white"/>
<rect x="4" y="4.5" width="24" height="2.36066" fill="#1A1F71"/>
<rect x="4" y="17.0898" width="24" height="2.36065" fill="#F7B600"/>
<path d="M14.5442 14.8519H13.0143L13.9712 8.93537H15.501L14.5442 14.8519Z" fill="#1A1F71"/>
<path d="M20.09 9.08002C19.7883 8.9603 19.3097 8.82812 18.7179 8.82812C17.2071 8.82812 16.1432 9.63374 16.1367 10.7855C16.1241 11.6353 16.8984 12.1073 17.4775 12.3907C18.0693 12.6802 18.2705 12.8692 18.2705 13.1273C18.2645 13.5236 17.7923 13.7063 17.3518 13.7063C16.741 13.7063 16.4138 13.6121 15.9164 13.3916L15.715 13.2971L15.5009 14.6252C15.8597 14.7887 16.5208 14.9337 17.2071 14.9401C18.8123 14.9401 19.8574 14.147 19.8697 12.9195C19.8758 12.246 19.467 11.7299 18.5856 11.3082C18.0505 11.0375 17.7228 10.855 17.7228 10.578C17.7291 10.3262 18 10.0683 18.604 10.0683C19.1013 10.0556 19.4668 10.1752 19.7436 10.2948L19.882 10.3576L20.09 9.08002Z" fill="#1A1F71"/>
<path d="M22.1233 12.7559C22.2492 12.416 22.734 11.1005 22.734 11.1005C22.7277 11.1131 22.8598 10.7543 22.9353 10.5341L23.0422 11.0439C23.0422 11.0439 23.3319 12.4601 23.3948 12.7559C23.1557 12.7559 22.4254 12.7559 22.1233 12.7559ZM24.0116 8.93537H22.8283C22.4634 8.93537 22.1862 9.04228 22.0287 9.42627L19.7563 14.8518H21.3616C21.3616 14.8518 21.6258 14.1216 21.6826 13.9643C21.8587 13.9643 23.4203 13.9643 23.6468 13.9643C23.6907 14.172 23.8294 14.8518 23.8294 14.8518H25.2458L24.0116 8.93537Z" fill="#1A1F71"/>
<path d="M6.38578 8.93537H8.84714C9.18076 8.94783 9.45147 9.05483 9.53957 9.43271L10.0744 12.1509L10.0747 12.1516L10.2384 12.9699L11.7366 8.93537H13.3543L10.9496 14.8457H9.33187L7.96833 9.7047C7.49786 9.42964 6.96092 9.20843 6.3606 9.05491L6.38578 8.93537Z" fill="#1A1F71"/>
</svg>
